static/images/pieces/shogi/ctk/0NK.svg

<svg height="60" width="52.172" xmlns="http://www.w3.org/2000/svg" xmlns:xlink="http://www.w3.org/1999/xlink"><filter id="a"><feGaussianBlur in="SourceAlpha" result="blur" stdDeviation="2"/><feOffset dx="2" dy="2" result="offsetBlur"/><feBlend in="SourceGraphic" in2="offsetBlur" mode="normal"/></filter><g filter="url(#a)" transform="translate(5 5)"><path d="m7.692 4.311-6.847 44.974 40.37.118-6.61-44.974-13.338-3.895z" fill="#feec99"/><path d="m17.399 37.499c-1.897-.945-1.942-1.522-.117-1.522.771 0 1.402-.21 1.402-.467s-.31-.467-.69-.467-1.026-.512-1.436-1.138c-1.297-1.98.519-3.742 4.226-4.102.937-.091 1.453-.428 1.566-1.023.177-.93-.128-.934-4.367-.049-1.914.4-3.52-.724-2.608-1.823.44-.53.8-.616 1.199-.285.337.28 1.713.354 3.365.181 1.776-.185 3.165-.094 3.808.25 1.048.561 1.37 2.105.545 2.614-.312.193-.306.593.016 1.196.6 1.12.04 2.294-1.76 3.691-1.16.9-1.184.974-.241.714 2.28-.627 3.835 1.01 2.36 2.485-.802.802-5.473.638-7.268-.255zm2.895-4.297c.854-.944.648-1.899-.412-1.899-.9 0-1.813 1.278-1.498 2.098.364.948.924.89 1.91-.199zm-7.452-10.376c5.076-5.282 5.791-6.464 4.908-8.115-.782-1.461-.452-1.81 1.336-1.418 3.257.716 3.082 2.561-.633 6.667-3.162 3.494-5.645 5.503-8.024 6.495-1.675.698-1.514.456 2.413-3.629zm12.736-.544c-2.506-2.365-4.557-4.46-4.557-4.657 0-1.263 9.249 4.5 10.263 6.395.675 1.26.386 2.622-.55 2.586-.328-.013-2.649-1.958-5.156-4.324zm-7.829 3.04c0-.25.559-.82 1.241-1.268 1.086-.711 1.144-.867.467-1.245-.425-.238-.773-.633-.773-.877 0-.644 3.45-.546 4.114.116.816.816.686 2.145-.258 2.64-1.305.686-4.79 1.147-4.79.634z" fill="#fecfcf"/><path d="m17.922 37.641c-2.169-.944-2.39-1.664-.512-1.664 2.195 0 2.533-.549.702-1.14-1.25-.405-1.558-.768-1.675-1.984-.167-1.72.65-2.34 3.784-2.875 1.338-.229 2.012-.599 2.12-1.164.146-.755-.147-.8-3.312-.514-2.901.263-3.518.195-3.75-.41-.345-.898.826-2.03 1.303-1.26.211.343 1.358.412 3.43.208 2.756-.272 3.211-.198 3.968.638.698.771.756 1.13.318 1.949-.402.75-.403 1.165-.005 1.645.676.814.035 2.1-1.745 3.496-1.268.994-1.272 1.009-.166.769 2.3-.499 3.84 1.48 1.942 2.496-1.257.673-4.65.572-6.402-.19zm1.978-3.89c.283-.19.763-.818 1.068-1.396.485-.92.44-1.052-.36-1.052-1.494 0-2.391.516-2.391 1.375 0 1.3.687 1.737 1.683 1.072zm-8.43-9.313c3.334-3.195 6.747-7.43 6.747-8.374 0-.366-.255-1.074-.567-1.573-.765-1.225-.305-1.548 1.529-1.073 2.091.542 2.686 1.585 1.823 3.199-1.455 2.717-6.449 7.505-9.413 9.023l-2.954 1.514zm17.264.667c-.771-.845-2.753-2.74-4.403-4.212s-2.865-2.81-2.7-2.975c.164-.164 1.498.309 2.965 1.051 3.339 1.69 7.325 5.373 7.097 6.558-.268 1.391-1.458 1.221-2.96-.422zm-10.985-.1c0-.122.683-.574 1.517-1.006 1.49-.77 1.498-.791.467-1.252-1.665-.743-1.221-1.326.89-1.17 4.045.3 3.076 3.65-1.056 3.65-1 0-1.818-.1-1.818-.222z" fill="#feafaf"/><path d="m18.392 37.807c-.803-.233-1.722-.74-2.043-1.127-.501-.603-.348-.703 1.082-.703 1.656 0 3.012-.92 1.398-.95-2.148-.037-3.233-2.438-1.766-3.906.748-.747 3.273-1.395 4.432-1.136.407.09.739-.286.84-.953.166-1.096.144-1.101-3.09-.776-3.388.34-4.202.01-3.635-1.468.223-.58.42-.616.955-.172.463.384 1.599.46 3.623.244 2.588-.277 3.052-.202 3.793.617.708.782.749 1.084.255 1.874-.433.693-.451 1.106-.07 1.565.691.833-.191 2.473-2.008 3.729l-1.37.948 1.397-.232c1.435-.238 3.043.326 3.043 1.067 0 1.67-3.437 2.364-6.836 1.379zm2.342-4.851c.992-1.515.96-1.653-.38-1.653-1.082 0-2.605 1.067-2.605 1.825 0 1.379 2.046 1.26 2.985-.172zm-8.255-9.482c1.805-1.735 3.93-4.178 4.72-5.429 1.354-2.142 1.395-2.338.706-3.388-.707-1.08-.69-1.116.523-1.116 1.65 0 3.06.786 3.06 1.707 0 2.508-9.332 11.381-11.97 11.381-.176 0 1.156-1.42 2.961-3.155zm13.217-1.312c-2.443-2.422-4.26-4.406-4.039-4.409 1.016-.013 6.33 3.229 8.162 4.98 2.033 1.943 2.469 3.552 1.013 3.742-.383.05-2.694-1.89-5.136-4.313zm-6.615 2.047c1.528-.978 1.542-1.016.57-1.536-1.276-.683-.768-1.185 1.198-1.185 1.106 0 1.696.288 2.088 1.02.465.869.39 1.146-.503 1.87-.641.519-1.8.846-2.984.841l-1.934-.008z" fill="#fe8f8f"/><path d="m18.354 37.72c-.824-.316-1.76-.837-2.08-1.158-.464-.467-.257-.586 1.031-.592.887-.003 1.928-.21 2.314-.46.552-.357.443-.455-.512-.46-1.31-.008-2.76-1.282-2.76-2.426 0-1.214 1.55-2.184 3.74-2.34 1.802-.128 2.125-.307 2.259-1.252.155-1.095.13-1.1-3.102-.776-3.387.34-4.201.01-3.634-1.468.225-.585.418-.618.964-.164.472.391 1.544.467 3.46.245 2.466-.286 2.888-.21 3.789.692.946.946.962 1.07.244 1.864-.507.56-.6.956-.272 1.158.957.591.486 2.037-1.124 3.45l-1.622 1.425 1.936.143c2.014.148 2.515.624 1.818 1.726-.549.867-4.57 1.112-6.449.393zm2.407-4.651c1.029-1.469.918-1.766-.658-1.766-1.415 0-2.69 1.415-2.114 2.347.5.808 2.022.49 2.772-.581zm-8.549-9.235c1.703-1.537 3.864-3.951 4.802-5.364 1.652-2.489 1.681-2.607.933-3.75-.76-1.159-.752-1.179.48-1.179 1.64 0 3.062.785 3.062 1.688 0 1.851-5.773 7.973-9.816 10.41-2.848 1.717-2.658 1.08.539-1.805zm13.703-1.63c-2.563-2.433-4.48-4.432-4.258-4.44.74-.029 5.732 2.819 7.506 4.281.965.795 1.918 1.889 2.12 2.43.376 1.011.167 2.154-.393 2.154-.173 0-2.412-1.991-4.975-4.425zm-6.53 1.88c1.384-1.19 1.389-1.21.356-1.487-1.496-.402-.821-1.11 1.058-1.11 1.143 0 1.741.28 2.121.99.738 1.379-.283 2.293-2.886 2.583l-2.05.228 1.401-1.205z" fill="#fe6f6f"/><path d="m18.509 37.628c-2.812-1.002-3.158-1.65-.88-1.65 1.064 0 2.065-.21 2.224-.468.159-.257-.098-.467-.57-.467-1.269 0-2.936-1.327-2.936-2.337 0-1.303 1.805-2.338 4.077-2.338 1.838 0 2-.097 2-1.205 0-1.199-.02-1.205-3.375-1.052-2.709.124-3.402.016-3.517-.547-.117-.579.533-.7 3.725-.695 4.144.006 5.036.283 5.036 1.564 0 .447-.263 1.092-.584 1.433-.467.495-.467.662 0 .834 1.13.414.565 1.95-1.305 3.55l-1.89 1.617 2.063-.232c2.526-.285 3.317.543 1.739 1.82-1.248 1.01-3.287 1.071-5.807.173zm2.252-4.56c1.024-1.46.918-1.765-.617-1.765-1.525 0-2.632 1.043-2.228 2.098.401 1.045 2.012.858 2.845-.332zm-8.5-9.243c4.014-3.678 6.652-7.581 5.976-8.843-.693-1.295-.627-1.44.648-1.44 1.086 0 2.604 1.067 2.604 1.832 0 .658-2.665 4.06-5.04 6.435-2.076 2.075-6.012 4.82-6.913 4.82-.185 0 1.042-1.262 2.725-2.804zm13.668-1.668c-2.57-2.409-4.454-4.386-4.185-4.394.637-.02 7.161 3.992 8.465 5.205 1.234 1.148 1.649 2.543.93 3.13-.367.3-2.01-.943-5.21-3.941zm-6.576 2.017c1.302-1.087 1.325-1.168.467-1.65-.839-.47-.845-.528-.083-.822 1.173-.452 3 .11 3.353 1.033.446 1.161-.733 2.064-3.056 2.34l-2.05.242z" fill="#fe4e4e"/><path d="m18.533 37.66c-2.46-.91-2.539-1.107-.592-1.472 1.814-.34 2.758-1.145 1.342-1.145-1.269 0-2.936-1.327-2.936-2.337 0-1.309 1.809-2.338 4.108-2.338 1.94 0 2.024-.057 1.883-1.285-.161-1.399-.285-1.422-4.229-.806-1.841.289-2.261.215-2.511-.437-.406-1.057.018-1.385 1.065-.825.559.3 1.722.306 3.305.018 1.667-.303 2.741-.284 3.384.06 1.064.57 1.229 1.85.357 2.773-.467.495-.467.662 0 .834 1.15.421.551 1.956-1.402 3.598l-1.987 1.67 2.159-.284c2.353-.31 3.057.16 2.133 1.424-.79 1.081-3.889 1.362-6.08.552zm2.228-4.591c1.024-1.462.918-1.766-.617-1.766-1.525 0-2.632 1.043-2.228 2.098.401 1.045 2.012.858 2.845-.332zm-7.427-10.236c4.264-4.46 5.698-6.757 4.958-7.943-.298-.478-.543-.977-.543-1.109 0-.58 1.863-.162 2.854.641l1.088.88-1.306 1.886c-1.774 2.56-6.713 7.242-8.714 8.26-1.425.727-1.212.392 1.663-2.615zm12.362-.904c-2.443-2.306-4.02-4.044-3.506-3.863 1.767.621 6.545 3.597 7.83 4.875 1.32 1.314 1.74 3.237.7 3.2-.321-.01-2.582-1.906-5.024-4.212zm-6.343 2.197c1.296-1.037 1.321-1.122.474-1.597-.83-.464-.8-.525.402-.827 1.463-.367 3.239.826 2.827 1.9-.27.702-2.599 1.626-4.09 1.623-.889-.003-.852-.108.387-1.099z" fill="#fe2f2f"/><path d="m19.653 37.764c-2.244-.395-3.707-1.32-2.086-1.32.516 0 1.327-.283 1.803-.631.81-.592.779-.653-.493-.972-2.647-.665-3.213-1.92-1.595-3.538.65-.65 1.558-.935 2.984-.935 1.615 0 2.097-.186 2.28-.883.47-1.801-.263-2.118-3.375-1.458-2.024.43-3.02.464-3.368.114-.8-.799-.017-1.595 1.02-1.04.6.32 1.572.322 2.988.005 3.47-.778 5.727.821 3.898 2.76-.467.495-.467.662 0 .833 1.15.422.55 1.957-1.402 3.584l-1.987 1.655 2.104-.097c1.81-.084 2.103.03 2.103.818 0 1.158-1.998 1.61-4.874 1.105zm1.185-4.474c.342-.45.628-1.081.636-1.402.015-.612-1.719-.787-2.985-.301-.745.286-1.006 1.631-.428 2.21.593.593 2.159.307 2.777-.507zm-7.21-10.762c4.214-4.423 5.425-6.42 4.646-7.666-.288-.462-.525-.949-.525-1.08 0-.577 1.86-.165 2.84.63l1.075.869-1.691 2.304c-2.16 2.943-6.255 6.82-8.327 7.884-1.348.692-1.026.214 1.982-2.941zm12.068-.666-4.44-4.254 3.383 1.802c3.8 2.023 6.666 4.547 6.666 5.87 0 1.575-1.093.909-5.61-3.418zm-6.374 2.396c1.426-1.121 1.58-1.82.414-1.873-.51-.023-.327-.215.483-.511 1.5-.547 2.672.119 2.672 1.518 0 .591-.543 1.007-1.753 1.343-2.652.737-3.182.598-1.816-.477z" fill="#fe0404"/></g></svg>

<svg xmlns="http://www.w3.org/2000/svg" width="52.172" height="60">
<!--
Created by Hari Seldon and modified by orangain, licensed under Creative Commons Attribution-Share Alike 3.0 Unported.
See: https://creativecommons.org/licenses/by-sa/3.0/deed.en

Original file is available at: https://commons.wikimedia.org/wiki/File:Shogi_narikei(svg).svg
-->
<filter id="drop-shadow">
    <feGaussianBlur in="SourceAlpha" result="blur" stdDeviation="2" />
    <feOffset result="offsetBlur" dx="2" dy="2" />
    <feBlend in="SourceGraphic" in2="offsetBlur" mode="normal" />
</filter>
<g filter="url(#drop-shadow)" transform="translate(5 5)">
    <path d="M7.692 4.311l-6.847 44.974 40.37 0.118 -6.61 -44.974 -13.338 -3.895z" fill="#FEEC99"/>
    <path d="M17.399 37.499C15.502 36.554 15.457 35.977 17.282 35.977 18.053 35.977 18.684 35.767 18.684 35.51 18.684 35.253 18.374 35.043 17.994 35.043 17.614 35.043 16.968 34.531 16.558 33.905 15.261 31.925 17.077 30.163 20.784 29.803 21.721 29.712 22.237 29.375 22.35 28.78 22.527 27.85 22.222 27.846 17.983 28.731 16.069 29.131 14.463 28.007 15.375 26.908 15.815 26.378 16.175 26.292 16.574 26.623 16.911 26.903 18.287 26.977 19.939 26.804 21.715 26.619 23.104 26.71 23.747 27.054 24.795 27.615 25.117 29.159 24.292 29.668 23.98 29.861 23.986 30.261 24.308 30.864 24.908 31.984 24.348 33.158 22.548 34.555 21.388 35.455 21.364 35.529 22.307 35.269 24.587 34.642 26.142 36.279 24.667 37.754 23.865 38.556 19.194 38.392 17.399 37.499ZM20.294 33.202C21.148 32.258 20.942 31.303 19.882 31.303 18.982 31.303 18.069 32.581 18.384 33.401 18.748 34.349 19.308 34.291 20.294 33.202ZM12.842 22.826C17.918 17.544 18.633 16.362 17.75 14.711 16.968 13.25 17.298 12.901 19.086 13.293 22.343 14.009 22.168 15.854 18.453 19.96 15.291 23.454 12.808 25.463 10.429 26.455 8.754 27.153 8.915 26.911 12.842 22.826ZM25.578 22.282C23.072 19.917 21.021 17.822 21.021 17.625 21.021 16.362 30.27 22.125 31.284 24.02 31.959 25.28 31.67 26.642 30.734 26.606 30.406 26.593 28.085 24.648 25.578 22.282ZM17.749 25.322C17.749 25.072 18.308 24.502 18.99 24.054 20.076 23.343 20.134 23.187 19.457 22.809 19.032 22.571 18.684 22.176 18.684 21.932 18.684 21.288 22.134 21.386 22.798 22.048 23.614 22.864 23.484 24.193 22.54 24.688 21.235 25.374 17.75 25.835 17.75 25.322Z" fill="#fecfcf"/>
    <path d="M17.922 37.641C15.753 36.697 15.532 35.977 17.41 35.977 19.605 35.977 19.943 35.428 18.112 34.837 16.862 34.432 16.554 34.069 16.437 32.853 16.27 31.133 17.087 30.513 20.221 29.978 21.559 29.749 22.233 29.379 22.341 28.814 22.487 28.059 22.194 28.014 19.029 28.3 16.128 28.563 15.511 28.495 15.279 27.89 14.934 26.992 16.105 25.86 16.582 26.63 16.793 26.973 17.94 27.042 20.012 26.838 22.768 26.566 23.223 26.64 23.98 27.476 24.678 28.247 24.736 28.606 24.298 29.425 23.896 30.175 23.895 30.59 24.293 31.07 24.969 31.884 24.328 33.17 22.548 34.566 21.28 35.56 21.276 35.575 22.382 35.335 24.682 34.836 26.222 36.815 24.324 37.831 23.067 38.504 19.674 38.403 17.922 37.641ZM19.9 33.751C20.183 33.561 20.663 32.933 20.968 32.355 21.453 31.435 21.408 31.303 20.608 31.303 19.114 31.303 18.217 31.819 18.217 32.678 18.217 33.978 18.904 34.415 19.9 33.75ZM11.47 24.438C14.804 21.243 18.217 17.008 18.217 16.064 18.217 15.698 17.962 14.99 17.65 14.491 16.885 13.266 17.345 12.943 19.179 13.418 21.27 13.96 21.865 15.003 21.002 16.617 19.547 19.334 14.553 24.122 11.589 25.64L8.635 27.154 11.47 24.438ZM28.734 25.105C27.963 24.26 25.981 22.365 24.331 20.893 22.681 19.421 21.466 18.083 21.631 17.918 21.795 17.754 23.129 18.227 24.596 18.969 27.935 20.659 31.921 24.342 31.693 25.527 31.425 26.918 30.235 26.748 28.733 25.105ZM17.749 25.005C17.749 24.883 18.432 24.431 19.266 23.999 20.756 23.229 20.764 23.208 19.733 22.747 18.068 22.004 18.512 21.421 20.623 21.577 24.668 21.877 23.699 25.227 19.567 25.227 18.567 25.227 17.749 25.127 17.749 25.005Z" fill="#feafaf"/>
    <path d="M18.392 37.807C17.589 37.574 16.67 37.067 16.349 36.68 15.848 36.077 16.001 35.977 17.431 35.977 19.087 35.977 20.443 35.057 18.829 35.027 16.681 34.99 15.596 32.589 17.063 31.121 17.811 30.374 20.336 29.726 21.495 29.985 21.902 30.075 22.234 29.699 22.335 29.032 22.501 27.936 22.479 27.931 19.245 28.256 15.857 28.596 15.043 28.266 15.61 26.788 15.833 26.208 16.03 26.172 16.565 26.616 17.028 27 18.164 27.076 20.188 26.86 22.776 26.583 23.24 26.658 23.981 27.477 24.689 28.259 24.73 28.561 24.236 29.351 23.803 30.044 23.785 30.457 24.166 30.916 24.857 31.749 23.975 33.389 22.158 34.645L20.788 35.593 22.185 35.361C23.62 35.123 25.228 35.687 25.228 36.428 25.228 38.098 21.791 38.792 18.392 37.807ZM20.734 32.956C21.726 31.441 21.694 31.303 20.354 31.303 19.272 31.303 17.749 32.37 17.749 33.128 17.749 34.507 19.795 34.388 20.734 32.956ZM12.479 23.474C14.284 21.739 16.409 19.296 17.199 18.045 18.553 15.903 18.594 15.707 17.905 14.657 17.198 13.577 17.215 13.541 18.428 13.541 20.078 13.541 21.488 14.327 21.488 15.248 21.488 17.756 12.156 26.629 9.518 26.629 9.342 26.629 10.674 25.209 12.479 23.474ZM25.696 22.162C23.253 19.74 21.436 17.756 21.657 17.753 22.673 17.74 27.987 20.982 29.819 22.733 31.852 24.676 32.288 26.285 30.832 26.475 30.449 26.525 28.138 24.585 25.696 22.162ZM19.081 24.209C20.609 23.231 20.623 23.193 19.651 22.673 18.375 21.99 18.883 21.488 20.849 21.488 21.955 21.488 22.545 21.776 22.937 22.508 23.402 23.377 23.327 23.654 22.434 24.378 21.793 24.897 20.634 25.224 19.45 25.219L17.516 25.211 19.081 24.209Z" fill="#fe8f8f"/>
    <path d="M18.354 37.72C17.53 37.404 16.594 36.883 16.274 36.562 15.81 36.095 16.017 35.976 17.305 35.97 18.192 35.967 19.233 35.76 19.619 35.51 20.171 35.153 20.062 35.055 19.107 35.05 17.797 35.042 16.347 33.768 16.347 32.624 16.347 31.41 17.897 30.44 20.087 30.284 21.889 30.156 22.212 29.977 22.346 29.032 22.501 27.937 22.476 27.932 19.244 28.256 15.857 28.596 15.043 28.266 15.61 26.788 15.835 26.203 16.028 26.17 16.574 26.624 17.046 27.015 18.118 27.091 20.034 26.869 22.5 26.583 22.922 26.659 23.823 27.561 24.769 28.507 24.785 28.631 24.067 29.425 23.56 29.985 23.467 30.381 23.795 30.583 24.752 31.174 24.281 32.62 22.671 34.033L21.049 35.458 22.985 35.601C24.999 35.749 25.5 36.225 24.803 37.327 24.254 38.194 20.233 38.439 18.354 37.72ZM20.761 33.069C21.79 31.6 21.679 31.303 20.103 31.303 18.688 31.303 17.413 32.718 17.989 33.65 18.489 34.458 20.011 34.14 20.761 33.069ZM12.212 23.834C13.915 22.297 16.076 19.883 17.014 18.47 18.666 15.981 18.695 15.863 17.947 14.72 17.187 13.561 17.195 13.541 18.427 13.541 20.067 13.541 21.489 14.326 21.489 15.229 21.489 17.08 15.716 23.202 11.673 25.639 8.825 27.356 9.015 26.719 12.212 23.834ZM25.915 22.204C23.352 19.771 21.435 17.772 21.657 17.764 22.397 17.735 27.389 20.583 29.163 22.045 30.128 22.84 31.081 23.934 31.283 24.475 31.659 25.486 31.45 26.629 30.89 26.629 30.717 26.629 28.478 24.638 25.915 22.204ZM19.385 24.084C20.769 22.894 20.774 22.874 19.741 22.597 18.245 22.195 18.92 21.487 20.799 21.487 21.942 21.487 22.54 21.767 22.92 22.477 23.658 23.856 22.637 24.77 20.034 25.06L17.984 25.288 19.385 24.083Z" fill="#fe6f6f"/>
    <path d="M18.509 37.628C15.697 36.626 15.351 35.978 17.629 35.978 18.693 35.978 19.694 35.768 19.853 35.51 20.012 35.253 19.755 35.043 19.283 35.043 18.014 35.043 16.347 33.716 16.347 32.706 16.347 31.403 18.152 30.368 20.424 30.368 22.262 30.368 22.424 30.271 22.424 29.163 22.424 27.964 22.404 27.958 19.049 28.111 16.34 28.235 15.647 28.127 15.532 27.564 15.415 26.985 16.065 26.864 19.257 26.869 23.401 26.875 24.293 27.152 24.293 28.433 24.293 28.88 24.03 29.525 23.709 29.866 23.242 30.361 23.242 30.528 23.709 30.7 24.839 31.114 24.274 32.65 22.404 34.25L20.514 35.867 22.577 35.635C25.103 35.35 25.894 36.178 24.316 37.455 23.068 38.465 21.029 38.526 18.509 37.628ZM20.761 33.068C21.785 31.608 21.679 31.303 20.144 31.303 18.619 31.303 17.512 32.346 17.916 33.401 18.317 34.446 19.928 34.259 20.761 33.069ZM12.261 23.825C16.275 20.147 18.913 16.244 18.237 14.982 17.544 13.687 17.61 13.542 18.885 13.542 19.971 13.542 21.489 14.609 21.489 15.374 21.489 16.032 18.824 19.434 16.449 21.809 14.373 23.884 10.437 26.629 9.536 26.629 9.351 26.629 10.578 25.367 12.261 23.825ZM25.929 22.157C23.359 19.748 21.475 17.771 21.744 17.763 22.381 17.743 28.905 21.755 30.209 22.968 31.443 24.116 31.858 25.511 31.139 26.098 30.772 26.398 29.129 25.155 25.929 22.157ZM19.353 24.174C20.655 23.087 20.678 23.006 19.82 22.524 18.981 22.054 18.975 21.996 19.737 21.702 20.91 21.25 22.737 21.812 23.09 22.735 23.536 23.896 22.357 24.799 20.034 25.075L17.984 25.317 19.353 24.174Z" fill="#fe4e4e"/>
    <path d="M18.533 37.66C16.073 36.75 15.994 36.553 17.941 36.188 19.755 35.848 20.699 35.043 19.283 35.043 18.014 35.043 16.347 33.716 16.347 32.706 16.347 31.397 18.156 30.368 20.455 30.368 22.395 30.368 22.479 30.311 22.338 29.083 22.177 27.684 22.053 27.661 18.109 28.277 16.268 28.566 15.848 28.492 15.598 27.84 15.192 26.783 15.616 26.455 16.663 27.015 17.222 27.315 18.385 27.321 19.968 27.033 21.635 26.73 22.709 26.749 23.352 27.093 24.416 27.663 24.581 28.943 23.709 29.866 23.242 30.361 23.242 30.528 23.709 30.7 24.859 31.121 24.26 32.656 22.307 34.298L20.32 35.968 22.479 35.684C24.832 35.374 25.536 35.844 24.612 37.108 23.822 38.189 20.723 38.47 18.532 37.66ZM20.761 33.069C21.785 31.607 21.679 31.303 20.144 31.303 18.619 31.303 17.512 32.346 17.916 33.401 18.317 34.446 19.928 34.259 20.761 33.069ZM13.334 22.833C17.598 18.373 19.032 16.076 18.292 14.89 17.994 14.412 17.749 13.913 17.749 13.781 17.749 13.201 19.612 13.619 20.603 14.422L21.691 15.302 20.385 17.188C18.611 19.748 13.672 24.43 11.671 25.448 10.246 26.175 10.459 25.84 13.334 22.833ZM25.696 21.929C23.253 19.623 21.676 17.885 22.19 18.066 23.957 18.687 28.735 21.663 30.02 22.941 31.34 24.255 31.76 26.178 30.72 26.141 30.399 26.131 28.138 24.235 25.696 21.929ZM19.353 24.126C20.649 23.089 20.674 23.004 19.827 22.529 18.997 22.065 19.027 22.004 20.229 21.702 21.692 21.335 23.468 22.528 23.056 23.602 22.786 24.304 20.457 25.228 18.966 25.225 18.077 25.222 18.114 25.117 19.353 24.126Z" fill="#fe2f2f"/>
    <path d="M19.653 37.764C17.409 37.369 15.946 36.444 17.567 36.444 18.083 36.444 18.894 36.161 19.37 35.813 20.18 35.221 20.149 35.16 18.877 34.841 16.23 34.176 15.664 32.921 17.282 31.303 17.932 30.653 18.84 30.368 20.266 30.368 21.881 30.368 22.363 30.182 22.546 29.485 23.016 27.684 22.283 27.367 19.171 28.027 17.147 28.457 16.151 28.491 15.803 28.141 15.003 27.342 15.786 26.546 16.823 27.101 17.423 27.421 18.395 27.423 19.811 27.106 23.281 26.328 25.538 27.927 23.709 29.866 23.242 30.361 23.242 30.528 23.709 30.699 24.859 31.121 24.259 32.656 22.307 34.283L20.32 35.938 22.424 35.841C24.234 35.757 24.527 35.871 24.527 36.659 24.527 37.817 22.529 38.269 19.653 37.764ZM20.838 33.29C21.18 32.84 21.466 32.209 21.474 31.888 21.489 31.276 19.755 31.101 18.489 31.587 17.744 31.873 17.483 33.218 18.061 33.797 18.654 34.39 20.22 34.104 20.838 33.29ZM13.628 22.528C17.842 18.105 19.053 16.108 18.274 14.862 17.986 14.4 17.749 13.913 17.749 13.782 17.749 13.205 19.609 13.617 20.589 14.412L21.664 15.281 19.973 17.585C17.813 20.528 13.718 24.405 11.646 25.469 10.298 26.161 10.62 25.683 13.628 22.528ZM25.696 21.862L21.256 17.608 24.639 19.41C28.439 21.433 31.305 23.957 31.305 25.28 31.305 26.855 30.212 26.189 25.695 21.862ZM19.322 24.258C20.748 23.137 20.902 22.438 19.736 22.385 19.226 22.362 19.409 22.17 20.219 21.874 21.719 21.327 22.891 21.993 22.891 23.392 22.891 23.983 22.348 24.399 21.138 24.735 18.486 25.472 17.956 25.333 19.322 24.258Z" fill="#fe0404"/>
</g>
</svg>
